X: 20
T: No_118_Song_of_Thanks_for_Food.krn
%%abc-version 2.0
%%abcx-abcm2ps-target-version 5.9.1 (29 Sep 2008)
%%abc-creator hum2abc beta
%%abcx-conversion-date 2020/08/10 18:54:57
%%gracespace 0 6 6
%%humdrum-veritas 3286037208
%%humdrum-veritas-data 1318636843
%%linebreak <none>
%%barnumbers 0
L: 1/8
M: 2/4
%%staves {1 2}
V: 1 clef=bass
V: 2 clef=bass
K: Ab
[V:1] [K:clef=bass][M:2/4]E2C/C3/ | 
[V:2] [K:clef=bass][M:2/4](3!accent!G,, z G,, (3!accent!G,, z G,, | 
[V:1] E2C/C3/ | 
[V:2] z4 | 
[V:1] C4 ||  
[V:2] z4 ||  
[V:1] [M:3/4]C2>>A,2A,2 | 
[V:2] [M:3/4]z6 | 
[V:1] C2>>A,2A,2 | 
[V:2] z6 | 
[V:1] F,A,E,2C,2 ||  
[V:2] z6 ||  
[V:1] [M:2/4]E,2C,/C,3/ | 
[V:2] [M:2/4]z4 | 
[V:1] C,4 | 
[V:2] z4 | 
[V:1] C,4 |]  
[V:2] z4 |]  


